public/assets/flags/1x1/nu.svg

<?xml version="1.0" encoding="UTF-8" standalone="no"?>
<!-- Created with Sodipodi ("http://www.sodipodi.com/") -->
<svg id="svg2498" xmlns:rdf="http://www.w3.org/1999/02/22-rdf-syntax-ns#" xmlns="http://www.w3.org/2000/svg" height="512" width="512" version="1.1" xmlns:cc="http://creativecommons.org/ns#" xmlns:dc="http://purl.org/dc/elements/1.1/">
 <metadata id="metadata3203">
  <rdf:RDF>
   <cc:Work rdf:about="">
    <dc:format>image/svg+xml</dc:format>
    <dc:type rdf:resource="http://purl.org/dc/dcmitype/StillImage"/>
   </cc:Work>
  </rdf:RDF>
 </metadata>
 <defs id="defs2500">
  <clipPath id="clipPath8501" clipPathUnits="userSpaceOnUse">
   <rect id="rect8503" fill-opacity="0.67" height="496.06" width="496.06" y="-.00036899" x="-.00023516"/>
  </clipPath>
 </defs>
 <g id="flag" clip-path="url(#clipPath8501)" transform="matrix(1.0321 0 0 1.0321 .00024271 .00038085)">
  <rect id="rect1310" fill-rule="evenodd" height="248.1" width="499.55" y="-0.000366" x=".013254" stroke-width="1pt" fill="#fff"/>
  <path id="path549" d="m0.013255 0.0003312-0.02081 18.621 119.21 61.253 44.86 1.3-164.05-81.174z" fill="#c00"/>
  <path id="path551" d="m51.054 0.0003312 144.53 75.491v-75.491h-144.52z" fill="#006"/>
  <path id="path552" fill="#c00" d="m214.86 0.0003312v96.372h-214.84v55.07h214.84v96.372h66.106v-96.372h214.84v-55.07h-214.84v-96.372h-66.106z"/>
  <path id="path554" d="m300.24 0.0003312v71.132l141.39-70.581-141.39-0.55067z" fill="#006"/>
  <path id="path555" d="m304.71 78.887 39.76-0.32 154.48-78.016-40.99 0.6682-153.25 77.668z" fill="#c00"/>
  <path id="path700" d="m0.013255 167.5v52.775l99.159-52.22-99.159-0.56z" fill="#006"/>
  <path id="path701" d="m381.85 169.68-41.336-0.321 155.82 77.58-1.025-17.749-113.46-59.51zm-343.12 78.57 146.11-76.71-38.38 0.26-146.45 76.34" fill="#c00"/>
  <path id="path556" d="m497.9 21.795-118 58.515 116.43 0.4357v87.194h-99.159l98.242 53.231 1.442 27.079-52.474-0.627-143.62-70.505v71.132h-104.67v-71.132l-134.72 70.941-60.844 0.191v247.81h991.59v-495.63l-493.17-0.42967m-498.41 27.971-0.52326 51.467 104.39 1.308-103.86-52.775z" fill="#006"/>
  <g id="g3304" fill-rule="evenodd" stroke-width="1pt" fill="#ffd900">
   <rect id="rect3302" height="496.06" width="496.06" y="-.000015260" x="496.06"/>
   <rect id="rect3303" height="248.03" width="523.49" y="248.03" x="0"/>
  </g>
  <g id="g3330" fill-rule="evenodd" transform="translate(7.6357 -229.39)">
   <path id="path3329" d="m284.27 354.68c0 23.619-19.147 42.767-42.767 42.767-23.619 0-42.767-19.147-42.767-42.767s19.147-42.767 42.767-42.767c23.619 0 42.767 19.147 42.767 42.767z" transform="translate(-1.0063 -.000015259)" fill="#000067"/>
   <polygon id="polygon3317" transform="matrix(.37676 0 0 .36496 39.671 225.36)" points="476.5 433.15 498.45 365.81 441.12 324.21 511.95 324.28 533.78 256.9 555.61 324.28 626.44 324.23 569.1 365.81 591.04 433.16 591.04 433.16 533.77 391.48" stroke-width="1pt" fill="#fff40d"/>
   <polygon id="polygon3325" transform="matrix(.18672 0 0 .17086 285.51 292.33)" points="476.5 433.15 498.45 365.81 441.12 324.21 511.95 324.28 533.78 256.9 555.61 324.28 626.44 324.23 569.1 365.81 591.04 433.16 591.04 433.16 533.77 391.48" stroke-width="1pt" fill="#fff40d"/>
   <polygon id="polygon3326" transform="matrix(.18672 0 0 .17086 140.83 377.87)" points="476.5 433.15 498.45 365.81 441.12 324.21 511.95 324.28 533.78 256.9 555.61 324.28 626.44 324.23 569.1 365.81 591.04 433.16 591.04 433.16 533.77 391.48" stroke-width="1pt" fill="#fff40d"/>
   <polygon id="polygon3327" transform="matrix(.18672 0 0 .17086 140.83 210.82)" points="476.5 433.15 498.45 365.81 441.12 324.21 511.95 324.28 533.78 256.9 555.61 324.28 626.44 324.23 569.1 365.81 591.04 433.16 591.04 433.16 533.77 391.48" stroke-width="1pt" fill="#fff40d"/>
   <polygon id="polygon3328" transform="matrix(.18672 0 0 .17086 -4.2973 292.33)" points="476.5 433.15 498.45 365.81 441.12 324.21 511.95 324.28 533.78 256.9 555.61 324.28 626.44 324.23 569.1 365.81 591.04 433.16 591.04 433.16 533.77 391.48" stroke-width="1pt" fill="#fff40d"/>
  </g>
 </g>
</svg>

<svg xmlns="http://www.w3.org/2000/svg" height="512" width="512"><defs><clipPath id="a"><path fill-opacity=".67" d="M0 0h496.06v496.06H0z"/></clipPath></defs><g clip-path="url(#a)"><path fill-rule="evenodd" fill="#fff" d="M.013 0h499.55v248.1H.013z"/><path d="M.013 0l-.02 18.62 119.21 61.254 44.86 1.3L.012 0z" fill="#c00"/><path d="M51.054 0l144.53 75.49V0H51.064z" fill="#006"/><path fill="#c00" d="M214.86 0v96.372H.02v55.07h214.84v96.372h66.106v-96.372h214.84v-55.07h-214.84V0H214.86z"/><path d="M300.24 0v71.132L441.63.552 300.24 0z" fill="#006"/><path d="M304.71 78.887l39.76-.32L498.95.55l-40.99.67-153.25 77.667z" fill="#c00"/><path d="M.013 167.5v52.775l99.16-52.22-99.16-.56z" fill="#006"/><path d="M381.85 169.68l-41.336-.32 155.82 77.58-1.025-17.75-113.46-59.51zM38.73 248.25l146.11-76.71-38.38.26L.01 248.14" fill="#c00"/><path d="M497.9 21.795l-118 58.515 116.43.436v87.194h-99.16l98.243 53.23 1.442 27.08-52.474-.627-143.62-70.505v71.132H196.09v-71.132l-134.72 70.94-60.843.192v247.81h991.59V.43L498.947 0M.537 27.97L.014 79.44l104.39 1.308L.544 27.97z" fill="#006"/><g fill-rule="evenodd" stroke-width="1pt" fill="#ffd900"><path d="M496.06 0h496.06v496.06H496.06z"/><path d="M0 248.03h523.49v248.03H0z"/></g><g fill-rule="evenodd"><path d="M290.9 125.29c0 23.62-19.148 42.767-42.768 42.767s-42.767-19.147-42.767-42.767 19.147-42.767 42.767-42.767c23.62 0 42.767 19.147 42.767 42.767z" fill="#000067"/><path fill="#fff40d" d="M226.833 154.052l8.27-24.576-21.6-15.182 26.686.025 8.224-24.592 8.224 24.59 26.686-.017-21.603 15.176 8.267 24.58-21.577-15.21M382.118 136.948l4.098-11.506-10.704-7.107 13.225.01 4.076-11.51 4.076 11.51 13.225-.007-10.707 7.104 4.097 11.508-10.694-7.122M237.438 222.488l4.098-11.506-10.704-7.107 13.225.01 4.076-11.51 4.076 11.51 13.225-.007-10.707 7.104 4.097 11.508-10.694-7.122M237.438 55.438l4.098-11.506-10.704-7.107 13.225.01 4.076-11.51 4.076 11.51 13.225-.007-10.707 7.104 4.097 11.508-10.694-7.122M92.31 136.948l4.1-11.506-10.706-7.107 13.226.01 4.076-11.51 4.076 11.51 13.225-.007-10.706 7.104 4.097 11.508-10.693-7.122"/></g></g></svg>
